svg/u1f3cc_1f3ff_200d_2642.svg

<svg viewBox="0 0 128 128" xmlns="http://www.w3.org/2000/svg">
  <path id="ear_1_" d="M74.66,24.1l-0.79-0.21l-1.21,4.42c0.3,0.08,0.6,0.13,0.91,0.13 c0.97,0,1.89-0.47,2.23-1.72C76.3,24.87,74.66,24.1,74.66,24.1z" fill="#3C2B24"/>
  <path id="ear" d="M55.9,18.95c0.01,0.01-0.03,0-0.11,0c-0.41,0-1.76,0.12-2.19,1.68 c-0.45,1.63,0.63,2.62,1.88,2.97l1.21-4.43L55.9,18.95z" fill="#3C2B24"/>
  <polygon id="neck" fill="#3C2B24" points="68.6,28.72 64.98,38.78 56.97,36.94 61.39,16.15 "/>
  <linearGradient id="head_1_" gradientUnits="userSpaceOnUse" x1="54.8696" x2="75.3605" y1="21.5648" y2="21.5648">
    <stop offset="0.5" stop-color="#70534A"/>
    <stop offset="1" stop-color="#5C4037"/>
  </linearGradient>
  <path id="head" d="M68.61,9.41c-7.41-2.03-10.92,3.18-13.14,11.25c-2.3,8.37,2.49,12.01,6.46,13.1 c3.91,1.07,9.92,0.46,12.24-7.96C76.39,17.72,76.02,11.44,68.61,9.41z" fill="url(#head_1_)"/>
  <g id="hairGroup">
    <radialGradient id="hair_1_" cx="66.1931" cy="-31.903" gradientTransform="matrix(0.943 0.3329 -0.3448 0.9767 -5.0535 22.0879)" gradientUnits="userSpaceOnUse" r="11.6739">
      <stop offset="0" stop-color="#444140"/>
      <stop offset="1" stop-color="#232020"/>
    </radialGradient>
    <path id="hair" d="M69.96,8.79l-0.19-0.07l-0.19-0.07c-7.91-2.62-12.01,1.43-13.21,4.83 c-1.17,3.28-0.93,5.39-0.93,5.39l-0.58,2.9c0.69,2.12,2.33,3.3,1.78,6.08c-0.44,2.26,2.06,3.89,4.66,4.83 c2.61,0.9,5.59,1.2,6.66-0.83c1.31-2.51,3.34-2.39,5.2-3.61l1.37-2.62c0,0,1.51-1.49,2.66-4.78C78.41,17.44,77.77,11.71,69.96,8.79 z" fill="url(#hair_1_)"/>
    <radialGradient id="hairHighlights_1_" cx="65.9427" cy="-18.9754" gradientTransform="matrix(0.3448 -0.9767 0.6168 0.2178 52.6365 94.0453)" gradientUnits="userSpaceOnUse" r="11.6739">
      <stop offset="0.5889" stop-color="#444140" stop-opacity="0"/>
      <stop offset="0.9839" stop-color="#444140"/>
    </radialGradient>
    <path id="hairHighlights" d="M69.96,8.79l-0.19-0.07l-0.19-0.07 c-7.91-2.62-12.01,1.43-13.21,4.83c-1.17,3.28-0.93,5.39-0.93,5.39l-0.58,2.9c0.69,2.12,2.33,3.3,1.78,6.08 c-0.44,2.26,2.06,3.89,4.66,4.83c2.61,0.9,5.59,1.2,6.66-0.83c1.31-2.51,3.34-2.39,5.2-3.61l1.37-2.62c0,0,1.51-1.49,2.66-4.78 C78.41,17.44,77.77,11.71,69.96,8.79z" fill="url(#hairHighlights_1_)"/>
  </g>
  <g id="cap">
    <ellipse cx="67.31" cy="12.64" fill="#1976D2" rx="8.66" ry="10.64" transform="matrix(0.0682 -0.9977 0.9977 0.0682 50.1026 78.9293)"/>
    <radialGradient id="SVGID_1_" cx="67.764" cy="118.03" gradientTransform="matrix(1 0 0 -1 0 130)" gradientUnits="userSpaceOnUse" r="15.401">
      <stop offset="0.1701" stop-color="#42A5F5"/>
      <stop offset="0.4571" stop-color="#3798EB"/>
      <stop offset="0.9831" stop-color="#1976D2"/>
    </radialGradient>
    <path d="M74.89,10.8c4.85,5.52,3.59,11.46-0.08,16.19c-3.91,5.05-13.87,3.1-18.13-1.86 s-3.3-11.37,1.28-15.3S70.57,5.88,74.89,10.8z" fill="url(#SVGID_1_)"/>
    <ellipse cx="67.2" cy="13.26" fill="#0665B2" rx="1.21" ry="1.4" transform="matrix(0.1791 -0.9838 0.9838 0.1791 42.1215 76.9929)"/>
  </g>
  <path id="tone" d="M41.86,22.42l-2.74-1.7l1.54-2.5c0,0,3.92,1.76,4.25,2.4c0.31,0.63-0.41,1.5-0.41,1.5 C43.54,23.49,42.73,22.95,41.86,22.42z" fill="#4A2F27"/>
  <path id="pants" d="M63.39,88.82c-1.05-0.89-1.74-2.13-1.93-3.49l-1.58-11.18 c1.28-3.67-0.57-14.36-9.24-14.36c-1.11,0-2.34,0.18-3.68,0.57c-2.17,0.63-4.84,7.79-4.84,7.79l8.44,25.79 c0.22,0.82,0.61,1.6,1.16,2.31c0.79,1,1.82,1.71,2.94,2.11l21.76,11.49l3.67-7L63.39,88.82z" fill="#616161"/>
  <path id="shoe" d="M84.35,102.44l-2.42-1.63c-0.97-0.66-2.39-0.79-3.41-0.79c-0.72,0-1.23,0.07-1.23,0.07 l-4.08,6.02l-1.88,6.63c-0.37,1.66,0.3,3.38,1.7,4.35l1.09,0.74c0.18,0.12,0.38,0.18,0.59,0.18c0.33,0,0.66-0.16,0.86-0.46 l9.1-13.45C85.04,103.55,84.9,102.81,84.35,102.44z" fill="#325599"/>
  <path id="pants_1_" d="M41.2,62.28l-4.72,22.26c-0.77,3.61-0.91,7.33-0.42,11l2.95,22.18l7.33-0.02 c0,0,1.87-24.72,1.89-24.76l6.26-18.98l0.23-0.33c1.93-2.05,2.71-6.93,2.71-6.93L41.2,62.28z" fill="#7C7C7C"/>
  <path id="shoe_1_" d="M47.04,114.97H39.2l-7.06,2.33c-1.71,0.67-2.84,2.32-2.85,4.15l-0.01,1.42 c0,0.62,0.5,1.13,1.12,1.13l17.51-0.02c0.71,0,1.29-0.58,1.29-1.29v-3.15C49.21,117.4,47.04,114.97,47.04,114.97z" fill="#4568AD"/>
  <path id="driver_1_" d="M96.68,58.74c0,0,4.66,2.6,5.18,3.72c0.38,0.83,0.45,3.77,0.24,5.65 C101.9,70,101,70.4,101,70.4s-1.58,1.05-3.28,1.32c-1.71,0.27-1.79-1.27-1.79-1.27s-0.35-2.81-0.18-3.73s0.83-2.61,1.76-3.75 c0.42-0.51-0.26-0.95-0.26-0.95l-1.86-1.42L96.68,58.74z" fill="#504F4F"/>
  <path id="shirt" d="M37.38,37.86l4.53-8.74l-6.84-3.6l-5.85,11.29c-0.81,1.56-0.81,3.42,0,4.98l0,0 c1.04,2.01,2.95,3.43,5.17,3.85l20.62,3.89l1.38-9.78L37.38,37.86z" fill="#04846C"/>
  <radialGradient id="shirt_3_" cx="56.9896" cy="46.455" gradientUnits="userSpaceOnUse" r="17.4308">
    <stop offset="0.3637" stop-color="#00BFA5"/>
    <stop offset="0.8121" stop-color="#00B29A"/>
    <stop offset="1" stop-color="#00AB94"/>
  </radialGradient>
  <path id="shirt_1_" d="M67.88,43.96c-0.08,0.42-0.21,0.83-0.36,1.2c-3.24,7.66-4.54,15.26-5.49,24.31 c-0.14,0.81-0.59,1.44-1.34,1.92c-1.3,0.83-3.44,1.13-5.81,1.13c-4.61,0-10.09-1.12-11.93-1.6h-0.01c-1.3-0.39-2.37-1.26-3.01-2.46 c-0.64-1.19-0.78-2.55-0.39-3.84c2.92-10.99,6.14-19.72,9.58-25.91c0.61-1.52,1.83-3.18,3.36-4.4c0.08-0.07,0.15-0.13,0.23-0.19 c0.02-0.01,0.03-0.02,0.05-0.03c0.56-0.42,1.15-0.78,1.77-1.04c0.01,0,0.02-0.01,0.03-0.01c0.58-0.26,1.18-0.43,1.79-0.5 c0,0,0,0,0.01,0c0.8-0.1,1.62-0.02,2.43,0.27l5.94,1.92c1.02,0.36,1.87,1.28,2.49,2.66c0.3,0.68,0.53,1.42,0.68,2.19 C68.19,41.05,68.19,42.61,67.88,43.96z" fill="url(#shirt_3_)"/>
  <path d="M67.88,43.96l-8.25-5.17l-0.48-0.3l-6.67-4.18l-0.02-0.02 c0,0,0.09-0.06,0.25-0.17c0.02-0.01,0.03-0.02,0.05-0.03c0.38-0.24,1.08-0.68,1.77-1.04c0.01,0,0.02-0.01,0.03-0.01 c0.62-0.33,1.23-0.58,1.58-0.56c0.04,0,0.11,0.02,0.21,0.06c0,0,0,0,0.01,0c0.5,0.21,1.65,0.87,3.13,1.77 c0.21,0.13,0.43,0.26,0.65,0.4c1.66,1.02,4.95,3.08,7.76,4.87C68.19,41.05,68.19,42.61,67.88,43.96z" enable-background="new " fill="#212121" opacity="0.4"/>
  <polygon id="stick" fill="#7C7D7D" points="95.39,60.6 96.68,58.74 46.65,24.02 44.92,26.53 "/>
  <path id="handle" d="M44.92,26.53l1.73-2.51L31.48,13.61c-0.69-0.47-1.64-0.3-2.11,0.39 c-0.48,0.69-0.3,1.65,0.39,2.12L44.92,26.53z" fill="#504F4F"/>
  <path id="tone_1_" d="M46.73,21.82c-0.33-0.49-0.91-0.74-1.49-0.63c-0.6,0.11-1,0.62-1.22,0.97 c-0.03,0.04-0.25,0.33-0.42,0.7c-0.53,0.08-1.07,0.21-1.39,0.31l-3.08,1.38c-0.18,0.08-0.29,0.25-0.3,0.44l-0.08,2.12 c0,0.06,0.01,0.11,0.02,0.16c0.18,0.64,1.46,1.5,2.1,1.76c0.16,0.06,0.36,0.13,0.56,0.13c0.12,0,0.24-0.02,0.36-0.09 c0.21-0.11,0.29-0.29,0.69-1.23c0.2-0.46,0.56-1.31,0.63-1.42c0.95-0.53,2-0.72,2.07-0.74c0.1-0.03,0.2-0.08,0.29-0.15 c0.22-0.11,0.3-0.32,0.3-0.34c0.09-0.16,0.15-0.35,0.17-0.5l0.09-0.27c0.26-0.77,0.76-1.39,0.8-1.44 C47.03,22.67,46.99,22.21,46.73,21.82z" fill="#4A2F27"/>
  <g id="hand">
    <linearGradient id="SVGID_2_" gradientUnits="userSpaceOnUse" x1="39.8889" x2="37.0982" y1="16.3996" y2="23.9345">
      <stop offset="0.35" stop-color="#70534A"/>
      <stop offset="1" stop-color="#5C4037"/>
    </linearGradient>
    <path d="M44.07,17.72c-0.92-0.79-1.2,0.07-1.8-0.22s-0.31-0.69-0.86-0.91 c-0.91-0.36-1.25,0.22-1.73,0.04c-0.5-0.18-0.25-0.54-0.94-0.69c-0.78-0.17-0.97,0.4-1.51,0.16c-0.53-0.25-0.45-0.45-1.02-0.58 c-0.61-0.14-1.07,0.01-1.66,0.88c-1.56,2.29-2.42,7.02-2.42,7.02l6.77,3.45c0,0,4.35-5.42,4.91-6.32 C44.35,19.66,44.99,18.52,44.07,17.72z" fill="url(#SVGID_2_)"/>
  </g>
  <g id="shirt_2_">
    <path d="M59.27,40.58c0,2.8-2.1,4.87-4.2,5.33c-0.08,0.06-1.2,0.08-1.37,0.06l-23.24-0.8 c-1.14,0.08-2.29-0.3-3.18-1.09c-1.35-1.18-1.84-3.05-1.26-4.75l5.46-16.88c0.04-0.14,0.14-0.25,0.27-0.3 c0.13-0.05,0.28-0.06,0.41,0l7.63,3.52c0.24,0.11,0.35,0.38,0.26,0.62l-3.5,9.8l17.14-0.9c0.03-0.01,0.1-0.01,0.18-0.01 c0.35-0.02,1.03-0.01,1.09,0.04c1.51,0.28,3.03,1.38,3.79,3.02C59.08,38.93,59.27,39.72,59.27,40.58z" fill="#04A287"/>
  </g>
  <path id="shoulder_x5F_shadow" d="M58.75,38.24l-4.88-3.06 c0.35-0.02,1.03-0.01,1.09,0.04C56.47,35.5,57.99,36.6,58.75,38.24z" enable-background="new " fill="#212121" opacity="0.4"/>
</svg>

<svg viewBox="0 0 128 128" xmlns="http://www.w3.org/2000/svg">
  <defs>
    <linearGradient id="head_1_" gradientUnits="userSpaceOnUse" x1="54.8696" x2="75.3605" y1="21.5648" y2="21.5648">
      <stop offset="0.5" stop-color="#70534A"/>
      <stop offset="1" stop-color="#5C4037"/>
    </linearGradient>
    <radialGradient id="shirt_3_" cx="56.9896" cy="46.455" gradientUnits="userSpaceOnUse" r="17.4308">
      <stop offset="0.3637" stop-color="#00BFA5"/>
      <stop offset="0.8121" stop-color="#00B29A"/>
      <stop offset="1" stop-color="#00AB94"/>
    </radialGradient>
    <radialGradient id="hair_1_" cx="68.780591" cy="-10.170099" gradientTransform="matrix(0.943 0.3329 -0.3448 0.9767 0 0)" gradientUnits="userSpaceOnUse" r="11.6739">
      <stop offset="0" stop-color="#444140"/>
      <stop offset="1" stop-color="#232020"/>
    </radialGradient>
    <radialGradient id="hairHighlights_1_" cx="-2.752688" cy="104.764337" gradientTransform="matrix(0.3448 -0.9767 0.6168 0.2178 0 0)" gradientUnits="userSpaceOnUse" r="11.6739">
      <stop offset="0.5889" stop-color="#444140" stop-opacity="0"/>
      <stop offset="0.9839" stop-color="#444140"/>
    </radialGradient>
    <radialGradient id="SVGID_1_" cx="67.764" cy="-11.97" gradientTransform="matrix(1 0 0 -1 0 0)" gradientUnits="userSpaceOnUse" r="15.401">
      <stop offset="0.1701" stop-color="#42A5F5"/>
      <stop offset="0.4571" stop-color="#3798EB"/>
      <stop offset="0.9831" stop-color="#1976D2"/>
    </radialGradient>
    <linearGradient id="SVGID_2_" gradientUnits="userSpaceOnUse" x1="39.8889" x2="37.0982" y1="16.3996" y2="23.9345">
      <stop offset="0.35" stop-color="#70534A"/>
      <stop offset="1" stop-color="#5C4037"/>
    </linearGradient>
  </defs>
  <path id="ear_1_" d="M74.66,24.1 L73.87,23.89 L72.66,28.31 C72.96,28.39 73.26,28.44 73.57,28.44 C74.54,28.44 75.46,27.97 75.8,26.72 C76.3,24.87 74.66,24.1 74.66,24.1 Z" fill="#3C2B24"/>
  <path id="ear" d="M55.9,18.95 C55.91,18.96 55.87,18.95 55.79,18.95 C55.38,18.95 54.03,19.07 53.6,20.63 C53.15,22.26 54.23,23.25 55.48,23.6 L56.69,19.17 L55.9,18.95 Z" fill="#3C2B24"/>
  <path id="neck" d="M68.6,28.72 L64.98,38.78 L56.97,36.94 L61.39,16.15 Z" fill="#3C2B24"/>
  <path id="head" d="M68.61,9.41 C61.2,7.38 57.69,12.59 55.47,20.66 C53.17,29.03 57.96,32.67 61.93,33.76 C65.84,34.83 71.85,34.22 74.17,25.8 C76.39,17.72 76.02,11.44 68.61,9.41 Z" fill="url(#head_1_)"/>
  <path id="hair" d="M69.96,8.79 L69.77,8.72 L69.58,8.65 C61.67,6.03 57.57,10.08 56.37,13.48 C55.2,16.76 55.44,18.87 55.44,18.87 L54.86,21.77 C55.55,23.89 57.19,25.07 56.64,27.85 C56.2,30.11 58.7,31.74 61.3,32.68 C63.91,33.58 66.89,33.88 67.96,31.85 C69.27,29.34 71.3,29.46 73.16,28.24 L74.53,25.62 C74.53,25.62 76.04,24.13 77.19,20.84 C78.41,17.44 77.77,11.71 69.96,8.79 Z" fill="url(#hair_1_)"/>
  <path id="hairHighlights" d="M69.96,8.79 L69.77,8.72 L69.58,8.65 C61.67,6.03 57.57,10.08 56.37,13.48 C55.2,16.76 55.44,18.87 55.44,18.87 L54.86,21.77 C55.55,23.89 57.19,25.07 56.64,27.85 C56.2,30.11 58.7,31.74 61.3,32.68 C63.91,33.58 66.89,33.88 67.96,31.85 C69.27,29.34 71.3,29.46 73.16,28.24 L74.53,25.62 C74.53,25.62 76.04,24.13 77.19,20.84 C78.41,17.44 77.77,11.71 69.96,8.79 Z" fill="url(#hairHighlights_1_)"/>
  <path d="M67.895,3.996 C73.757,4.397 78.246,8.59 77.92,13.362 C77.593,18.134 72.576,21.677 66.713,21.276 C60.851,20.875 56.362,16.682 56.689,11.911 C57.015,7.139 62.032,3.595 67.895,3.996 Z" fill="#1976D2"/>
  <path d="M74.89,10.8 C79.74,16.32 78.48,22.26 74.81,26.99 C70.9,32.04 60.94,30.09 56.68,25.13 C52.42,20.17 53.38,13.76 57.96,9.83 C62.54,5.9 70.57,5.88 74.89,10.8 Z" fill="url(#SVGID_1_)"/>
  <path d="M67.419,12.066 C68.18,12.204 68.699,12.85 68.58,13.507 C68.46,14.165 67.746,14.585 66.985,14.447 C66.225,14.308 65.705,13.663 65.825,13.006 C65.945,12.348 66.658,11.928 67.419,12.066 Z" fill="#0665B2"/>
  <path id="tone" d="M41.86,22.42 L39.12,20.72 L40.66,18.22 C40.66,18.22 44.58,19.98 44.91,20.62 C45.22,21.25 44.5,22.12 44.5,22.12 C43.54,23.49 42.73,22.95 41.86,22.42 Z" fill="#4A2F27"/>
  <path id="pants" d="M63.39,88.82 C62.34,87.93 61.65,86.69 61.46,85.33 L59.88,74.15 C61.16,70.48 59.31,59.79 50.64,59.79 C49.53,59.79 48.3,59.97 46.96,60.36 C44.79,60.99 42.12,68.15 42.12,68.15 L50.56,93.94 C50.78,94.76 51.17,95.54 51.72,96.25 C52.51,97.25 53.54,97.96 54.66,98.36 L76.42,109.85 L80.09,102.85 L63.39,88.82 Z" fill="#616161"/>
  <path id="shoe" d="M84.35,102.44 L81.93,100.81 C80.96,100.15 79.54,100.02 78.52,100.02 C77.8,100.02 77.29,100.09 77.29,100.09 L73.21,106.11 L71.33,112.74 C70.96,114.4 71.63,116.12 73.03,117.09 L74.12,117.83 C74.3,117.95 74.5,118.01 74.71,118.01 C75.04,118.01 75.37,117.85 75.57,117.55 L84.67,104.1 C85.04,103.55 84.9,102.81 84.35,102.44 Z" fill="#325599"/>
  <path id="pants_1_" d="M41.2,62.28 L36.48,84.54 C35.71,88.15 35.57,91.87 36.06,95.54 L39.01,117.72 L46.34,117.7 C46.34,117.7 48.21,92.98 48.23,92.94 L54.49,73.96 L54.72,73.63 C56.65,71.58 57.43,66.7 57.43,66.7 L41.2,62.28 Z" fill="#7C7C7C"/>
  <path id="shoe_1_" d="M47.04,114.97 L39.2,114.97 L32.14,117.3 C30.43,117.97 29.3,119.62 29.29,121.45 L29.28,122.87 C29.28,123.49 29.78,124 30.4,124 L47.91,123.98 C48.62,123.98 49.2,123.4 49.2,122.69 L49.2,119.54 C49.21,117.4 47.04,114.97 47.04,114.97 Z" fill="#4568AD"/>
  <path id="driver_1_" d="M96.68,58.74 C96.68,58.74 101.34,61.34 101.86,62.46 C102.24,63.29 102.31,66.23 102.1,68.11 C101.9,70 101,70.4 101,70.4 C101,70.4 99.42,71.45 97.72,71.72 C96.01,71.99 95.93,70.45 95.93,70.45 C95.93,70.45 95.58,67.64 95.75,66.72 C95.92,65.8 96.58,64.11 97.51,62.97 C97.93,62.46 97.25,62.02 97.25,62.02 L95.39,60.6 L96.68,58.74 Z" fill="#504F4F"/>
  <path id="shirt" d="M37.38,37.86 L41.91,29.12 L35.07,25.52 L29.22,36.81 C28.41,38.37 28.41,40.23 29.22,41.79 L29.22,41.79 C30.26,43.8 32.17,45.22 34.39,45.64 L55.01,49.53 L56.39,39.75 L37.38,37.86 Z" fill="#04846C"/>
  <path id="shirt_1_" d="M67.88,43.96 C67.8,44.38 67.67,44.79 67.52,45.16 C64.28,52.82 62.98,60.42 62.03,69.47 C61.89,70.28 61.44,70.91 60.69,71.39 C59.39,72.22 57.25,72.52 54.88,72.52 C50.27,72.52 44.79,71.4 42.95,70.92 L42.94,70.92 C41.64,70.53 40.57,69.66 39.93,68.46 C39.29,67.27 39.15,65.91 39.54,64.62 C42.46,53.63 45.68,44.9 49.12,38.71 C49.73,37.19 50.95,35.53 52.48,34.31 C52.56,34.24 52.63,34.18 52.71,34.12 C52.73,34.11 52.74,34.1 52.76,34.09 C53.32,33.67 53.91,33.31 54.53,33.05 C54.54,33.05 54.55,33.04 54.56,33.04 C55.14,32.78 55.74,32.61 56.35,32.54 C56.35,32.54 56.35,32.54 56.36,32.54 C57.16,32.44 57.98,32.52 58.79,32.81 L64.73,34.73 C65.75,35.09 66.6,36.01 67.22,37.39 C67.52,38.07 67.75,38.81 67.9,39.58 C68.19,41.05 68.19,42.61 67.88,43.96 Z" fill="url(#shirt_3_)"/>
  <path d="M67.88,43.96 L59.63,38.79 L59.15,38.49 L52.48,34.31 L52.46,34.29 C52.46,34.29 52.55,34.23 52.71,34.12 C52.73,34.11 52.74,34.1 52.76,34.09 C53.14,33.85 53.84,33.41 54.53,33.05 C54.54,33.05 54.55,33.04 54.56,33.04 C55.18,32.71 55.79,32.46 56.14,32.48 C56.18,32.48 56.25,32.5 56.35,32.54 C56.35,32.54 56.35,32.54 56.36,32.54 C56.86,32.75 58.01,33.41 59.49,34.31 C59.7,34.44 59.92,34.57 60.14,34.71 C61.8,35.73 65.09,37.79 67.9,39.58 C68.19,41.05 68.19,42.61 67.88,43.96 Z" fill="#212121" opacity="0.4"/>
  <path id="stick" d="M95.39,60.6 L96.68,58.74 L46.65,24.02 L44.92,26.53 Z" fill="#7C7D7D"/>
  <path id="handle" d="M44.92,26.53 L46.65,24.02 L31.48,13.61 C30.79,13.14 29.84,13.31 29.37,14 C28.89,14.69 29.07,15.65 29.76,16.12 L44.92,26.53 Z" fill="#504F4F"/>
  <path id="tone_1_" d="M46.73,21.82 C46.4,21.33 45.82,21.08 45.24,21.19 C44.64,21.3 44.24,21.81 44.02,22.16 C43.99,22.2 43.77,22.49 43.6,22.86 C43.07,22.94 42.53,23.07 42.21,23.17 L39.13,24.55 C38.95,24.63 38.84,24.8 38.83,24.99 L38.75,27.11 C38.75,27.17 38.76,27.22 38.77,27.27 C38.95,27.91 40.23,28.77 40.87,29.03 C41.03,29.09 41.23,29.16 41.43,29.16 C41.55,29.16 41.67,29.14 41.79,29.07 C42,28.96 42.08,28.78 42.48,27.84 C42.68,27.38 43.04,26.53 43.11,26.42 C44.06,25.89 45.11,25.7 45.18,25.68 C45.28,25.65 45.38,25.6 45.47,25.53 C45.69,25.42 45.77,25.21 45.77,25.19 C45.86,25.03 45.92,24.84 45.94,24.69 L46.03,24.42 C46.29,23.65 46.79,23.03 46.83,22.98 C47.03,22.67 46.99,22.21 46.73,21.82 Z" fill="#4A2F27"/>
  <path d="M44.07,17.72 C43.15,16.93 42.87,17.79 42.27,17.5 C41.67,17.21 41.96,16.81 41.41,16.59 C40.5,16.23 40.16,16.81 39.68,16.63 C39.18,16.45 39.43,16.09 38.74,15.94 C37.96,15.77 37.77,16.34 37.23,16.1 C36.7,15.85 36.78,15.65 36.21,15.52 C35.6,15.38 35.14,15.53 34.55,16.4 C32.99,18.69 32.13,23.42 32.13,23.42 L38.9,26.87 C38.9,26.87 43.25,21.45 43.81,20.55 C44.35,19.66 44.99,18.52 44.07,17.72 Z" fill="url(#SVGID_2_)"/>
  <path d="M59.27,40.58 C59.27,43.38 57.17,45.45 55.07,45.91 C54.99,45.97 53.87,45.99 53.7,45.97 L30.46,45.17 C29.32,45.25 28.17,44.87 27.28,44.08 C25.93,42.9 25.44,41.03 26.02,39.33 L31.48,22.45 C31.52,22.31 31.62,22.2 31.75,22.15 C31.88,22.1 32.03,22.09 32.16,22.15 L39.79,25.67 C40.03,25.78 40.14,26.05 40.05,26.29 L36.55,36.09 L53.69,35.19 C53.72,35.18 53.79,35.18 53.87,35.18 C54.22,35.16 54.9,35.17 54.96,35.22 C56.47,35.5 57.99,36.6 58.75,38.24 C59.08,38.93 59.27,39.72 59.27,40.58 Z" fill="#04A287"/>
  <path id="shoulder_x5F_shadow" d="M58.75,38.24 L53.87,35.18 C54.22,35.16 54.9,35.17 54.96,35.22 C56.47,35.5 57.99,36.6 58.75,38.24 Z" fill="#212121" opacity="0.4"/>
</svg>
